src/skin/adminhtml/base/default/images/twofactor/logo.svg

<?xml version="1.0" encoding="UTF-8"?>
<svg shape-rendering="geometricPrecision" width="500px" height="100px" viewBox="0 0 500 100" version="1.1" xmlns="http://www.w3.org/2000/svg" xmlns:xlink="http://www.w3.org/1999/xlink">
    <!-- Generator: Sketch 47.1 (45422) - http://www.bohemiancoding.com/sketch -->
    <title>logo</title>
    <desc>Created with Sketch.</desc>
    <defs>
        <path d="M1.44328993e-15,9.36859968 L1.44328993e-15,1.59033629 L1.77635684e-15,1.59033629 C1.70872146e-15,1.03805154 0.44771525,0.590336287 1,0.590336287 C1.15000983,0.590336287 1.29809771,0.624085438 1.43329443,0.689083863 L51.4332944,24.7275454 L51.4332944,24.7275454 C51.7797024,24.8940877 52,25.244435 52,25.6287978 L52,34.3712022 L52,34.3712022 C52,34.755565 51.7797024,35.1059123 51.4332944,35.2724546 L1.43329443,59.3109161 L1.43329443,59.3109161 C0.935546465,59.550218 0.338049484,59.3407061 0.0987475755,58.8429581 C0.0337491504,58.7077614 2.46086156e-15,58.5596735 2.44249065e-15,58.4096637 L1.44328993e-15,50.6314003 L9.32587341e-15,50.6314003 C1.20192601e-14,50.245692 0.221825624,49.8943688 0.57006642,49.7285398 L40.1039929,30.9028605 L40.1039929,30.9028605 C40.602629,30.6654148 40.8143656,30.0687025 40.5769198,29.5700664 C40.4782296,29.3628169 40.3112425,29.1958297 40.1039929,29.0971395 L0.57006642,10.2714602 L0.57006642,10.2714602 C0.221825624,10.1056312 -4.15875328e-16,9.75430798 2.22044605e-16,9.36859968 Z" id="path-1"></path>
        <path d="M11.2819426,20 L32.7180574,20 C33.1638168,20 33.3254599,20.0464128 33.4884229,20.1335664 C33.6513858,20.2207199 33.7792801,20.3486142 33.8664336,20.5115771 C33.9535872,20.6745401 34,20.8361832 34,21.2819426 L34,30 L11.2819426,30 C10.8361832,30 10.6745401,29.9535872 10.5115771,29.8664336 C10.3486142,29.7792801 10.2207199,29.6513858 10.1335664,29.4884229 C10.0464128,29.3254599 10,29.1638168 10,28.7180574 L10,21.2819426 C10,20.8361832 10.0464128,20.6745401 10.1335664,20.5115771 C10.2207199,20.3486142 10.3486142,20.2207199 10.5115771,20.1335664 C10.6745401,20.0464128 10.8361832,20 11.2819426,20 Z M1,90 L14,90 L14,100 L1,100 C0.44771525,100 6.76353751e-17,99.5522847 0,99 L0,91 C-6.76353751e-17,90.4477153 0.44771525,90 1,90 L1,90 Z M14,100 L14,80 C18.437991,80 25.1046577,80 34,80 C34,91.045695 25.045695,100 14,100 Z M14,90 C19.5228475,90 24,85.5228475 24,80 C19.5469357,80 16.2136023,80 14,80 L14,90 Z M24,30 L34,30 L34,80 L24,80 L24,30 Z M24,0 L33,0 C33.5522847,-1.01453063e-16 34,0.44771525 34,1 L34,9 C34,9.55228475 33.5522847,10 33,10 L24,10 C23.4477153,10 23,9.55228475 23,9 L23,1 L23,1 C23,0.44771525 23.4477153,1.01453063e-16 24,0 Z M24,30 C24,31.0348565 24,31.3681898 24,31 C24,30.4477153 23.5522847,30 23,30 C22.6318102,30 22.9651435,30 24,30 Z" id="path-3"></path>
        <path d="M26,10 C17.163444,10 10,16.163444 10,25 L42,25 C42,16.163444 34.836556,10 26,10 Z M38.5747433,44.5093192 L44.9262231,51.8379497 C40.1804887,56.8633398 33.4538821,60 26,60 C11.6405965,60 1.75851975e-15,48.3594035 0,34 L0,26 C-1.75851975e-15,11.6405965 11.6405965,2.63777963e-15 26,0 C40.3594035,-2.63777963e-15 52,11.6405965 52,26 L52,34.9998581 L41.9999998,35.0022819 L10,35 C10,43.836556 17.163444,50 26,50 C31.1012692,50 35.6449479,47.9459365 38.5747433,44.5093192 Z M51,35 C50.6318102,35 50.9651435,35 52,35 C52,33.9651435 52,33.6318102 52,34 C52,34.5522847 51.5522847,35 51,35 Z" id="path-5"></path>
        <path d="M10,19.9896712 C10,18.9668046 10,18.6385582 10,19.0049321 C10,19.5234855 10.3946961,19.9498528 10.9000544,20 L31,20 C31.5522847,20 32,20.4477153 32,21 L32,29 C32,29.5522847 31.5522847,30 31,30 L0,30 L0,20 L10,20 Z M20,80 C8.954305,80 0,71.045695 0,60 C8.89534233,60 15.562009,60 20,60 L20,80 Z M20,70 L20,60 C17.7863977,60 14.4530643,60 10,60 C10,65.5228475 14.4771525,70 20,70 Z M20,70 L31,70 C31.5522847,70 32,70.4477153 32,71 L32,79 C32,79.5522847 31.5522847,80 31,80 L20,80 L20,70 Z M0,30 L10,30 L10,60 L0,60 L0,30 Z M10,0 L10,20 L0,20 L0,5 L10,0 Z M10,30 C11.0348565,30 11.3681898,30 11,30 C10.4477153,30 10,30.4477153 10,31 C10,31.3681898 10,31.0348565 10,30 Z" id="path-7"></path>
        <path d="M42,5.50100611 L35.8472583,13.3852345 C33.1324185,11.2640716 29.7152811,10 26.0028715,10 C17.1653396,10 10.0011044,17.163444 10.0011044,26 L0,26 L0,1 L0,1 C-6.76353751e-17,0.44771525 0.44771525,1.01453063e-16 1,0 L1,0 L5.50055221,0 L10.0011044,0 L10.0011044,5.50463114 C14.413465,2.05555656 19.9680913,0 26.0028715,0 C32.0355372,0 37.5883853,2.05411632 42,5.50100611 Z M0,26 L10.0011044,26 L10.0011044,59 L10.0011044,59 C10.0011044,59.5522847 9.55338916,60 9.00110441,60 L1,60 C0.44771525,60 6.76353751e-17,59.5522847 0,59 L0,26 Z M10,1 C10,1.36818983 10,1.0348565 10,0 C8.9651435,0 8.63181017,0 9,0 C9.55228475,0 10,0.44771525 10,1 Z" id="path-9"></path>
        <path d="M5,14 L5,4 C8.6200123,0.37530482 21.4724736,0 27,0 L27,10.0020548 C21.0454949,9.76679362 16.3788282,10.099442 13,11 C9.6211718,11.900558 6.95450513,12.900558 5,14 Z M27,0 C38.045695,0 47,8.954305 47,20 L27,20 L27,0 Z M27,10 L27,20 L37,20 C37,14.4771525 32.5228475,10 27,10 Z M47,33.25 L47,40 C47,44 48.6666667,50.6666667 52,60 L42,60 L40.7442223,52.4653337 C36.4518416,57.0993405 30.3146634,60 23.5,60 L20,60 C8.954305,60 1.3527075e-15,51.045695 0,40 C-1.3527075e-15,28.954305 8.954305,20 20,20 L47,20 L47,33.25 Z M37,30 L20,30 C14.4771525,30 10,34.4771525 10,40 C10,45.5228475 14.4771525,50 20,50 L23.5,50 C30.9558441,50 37,43.9558441 37,36.5 L37,30 Z" id="path-11"></path>
        <path d="M31,80 C19.954305,80 11,71.045695 11,60 C19.8953423,60 26.562009,60 31,60 L31,80 Z M31,70 L31,60 C28.7863977,60 25.4530643,60 21,60 C21,65.5228475 25.4771525,70 31,70 Z M31,70 L41,70 C41.5522847,70 42,70.4477153 42,71 L42,79 C42,79.5522847 41.5522847,80 41,80 L31,80 L31,70 Z M11,30 L21,30 L21,60 L11,60 L11,30 Z M1,20 L20,20 C20.5522847,20 21,20.4477153 21,21 L21,30 L1,30 C0.44771525,30 6.76353751e-17,29.5522847 0,29 L0,21 C-6.76353751e-17,20.4477153 0.44771525,20 1,20 L1,20 Z M11.2819426,-5.17920154e-17 L19.7180574,-4.4903865e-16 C20.1638168,2.60904387e-16 20.3254599,0.0464128056 20.4884229,0.133566352 C20.6513858,0.220719898 20.7792801,0.348614185 20.8664336,0.511577148 C20.9535872,0.674540111 21,0.83618323 21,1.2819426 L21,8.7180574 C21,9.16381677 20.9535872,9.32545989 20.8664336,9.48842285 C20.7792801,9.65138581 20.6513858,9.7792801 20.4884229,9.86643365 C20.3254599,9.95358719 20.1638168,10 19.7180574,10 L11.2819426,10 C10.8361832,10 10.6745401,9.95358719 10.5115771,9.86643365 C10.3486142,9.7792801 10.2207199,9.65138581 10.1335664,9.48842285 C10.0464128,9.32545989 10,9.16381677 10,8.7180574 L10,1.2819426 C10,0.83618323 10.0464128,0.674540111 10.1335664,0.511577148 C10.2207199,0.348614185 10.3486142,0.220719898 10.5115771,0.133566352 C10.6745401,0.0464128056 10.8361832,3.00926524e-17 11.2819426,-5.17920154e-17 Z M11,31 C11,30.4477153 10.5522847,30 10,30 C9.63181017,30 9.9651435,30 11,30 C11,31.0348565 11,31.3681898 11,31 Z" id="path-13"></path>
        <path d="M31,80 C19.954305,80 11,71.045695 11,60 C19.8953423,60 26.562009,60 31,60 L31,80 Z M31,70 L31,60 C28.7863977,60 25.4530643,60 21,60 C21,65.5228475 25.4771525,70 31,70 Z M31,70 L41,70 C41.5522847,70 42,70.4477153 42,71 L42,79 C42,79.5522847 41.5522847,80 41,80 L31,80 L31,70 Z M1,0 L20,0 C20.5522847,-2.06356265e-15 21,0.44771525 21,1 L21,10 L1,10 C0.44771525,10 6.76353751e-17,9.55228475 0,9 L0,1 L0,1 C-6.76353751e-17,0.44771525 0.44771525,1.01453063e-16 1,0 L1,0 Z M11,10 L21,10 L21,60 L11,60 L11,10 Z M11,11 C11,10.4477153 10.5522847,10 10,10 C9.63181017,10 9.9651435,10 11,10 C11,11.0348565 11,11.3681898 11,11 Z" id="path-15"></path>
        <path d="M22,35 C9.8497355,35 0,27.1649831 0,17.5 C0,7.83501688 9.8497355,0 22,0 L22,35 Z M22,25 L22,10 C15.372583,10 10,13.3578644 10,17.5 C10,21.6421356 15.372583,25 22,25 Z M22,60 C9.8497355,60 0,52.1649831 0,42.5 L22,42.5 L22,60 Z M22,50 L22,42.5 L10,42.5 C10,46.6421356 15.372583,50 22,50 Z M22,60 L22,25 C34.1502645,25 44,32.8350169 44,42.5 C44,52.1649831 34.1502645,60 22,60 Z M22,50 L22,35 C28.627417,35 34,38.3578644 34,42.5 C34,46.6421356 28.627417,50 22,50 Z M22,15.625 L22,0 C30.7744859,0 38.3491973,4.08612671 41.8809229,9.99673472 L33.9999993,17.4974156 L34,17.5 L22,17.5 L22,15.625 L22,17.5 L33.9972839,17.5 L33.9999993,17.4974156 C33.9977652,13.3564678 28.6260386,10 22,10 L22,15.625 L22,15.625 Z" id="path-17"></path>
        <path d="M52,51 L52,59 L52,59 C52,59.5522847 51.5522847,60 51,60 L1,60 L1,60 C0.44771525,60 6.76353751e-17,59.5522847 0,59 L0,51 L0,51 C-6.76353751e-17,50.4477153 0.44771525,50 1,50 L51,50 L51,50 C51.5522847,50 52,50.4477153 52,51 Z" id="path-19"></path>
    </defs>
    <g id="Logo-Presentation" stroke="none" stroke-width="1" fill="none" fill-rule="evenodd">
        <g id="Light-Theme" transform="translate(-150.000000, -350.000000)">
            <g id="Logo---Full" transform="translate(150.000000, 350.000000)">
                <g id="&gt;" transform="translate(0.000000, 20.000000)">
                    <mask id="mask-2" fill="white">
                        <use xlink:href="#path-1"></use>
                    </mask>
                    <use id="Mask" fill="#89BA40" fill-rule="nonzero" xlink:href="#path-1"></use>
                    <g id="Green" mask="url(#mask-2)" fill-rule="evenodd" fill="#89BA40">
                        <rect id="Object" x="0" y="0" width="52" height="60"></rect>
                    </g>
                </g>
                <g id="J" transform="translate(52.000000, 0.000000)">
                    <mask id="mask-4" fill="white">
                        <use xlink:href="#path-3"></use>
                    </mask>
                    <use id="Mask" fill="#58595B" fill-rule="evenodd" xlink:href="#path-3"></use>
                    <g id="Dark-Gray" mask="url(#mask-4)" fill-rule="evenodd" fill="#58595B">
                        <rect id="Object" x="0" y="0" width="34" height="100"></rect>
                    </g>
                </g>
                <g id="E" transform="translate(96.000000, 20.000000)">
                    <mask id="mask-6" fill="white">
                        <use xlink:href="#path-5"></use>
                    </mask>
                    <use id="Mask" fill="#58595B" fill-rule="nonzero" xlink:href="#path-5"></use>
                    <g id="Dark-Gray" mask="url(#mask-6)" fill-rule="evenodd" fill="#58595B">
                        <rect id="Object" x="0" y="0" width="52" height="60"></rect>
                    </g>
                </g>
                <g id="T" transform="translate(158.000000, 0.000000)">
                    <mask id="mask-8" fill="white">
                        <use xlink:href="#path-7"></use>
                    </mask>
                    <use id="Mask" fill="#58595B" fill-rule="evenodd" xlink:href="#path-7"></use>
                    <g id="Dark-Gray" mask="url(#mask-8)" fill-rule="evenodd" fill="#58595B">
                        <rect id="Object" x="0" y="0" width="32" height="80"></rect>
                    </g>
                </g>
                <g id="R" transform="translate(200.000000, 20.000000)">
                    <mask id="mask-10" fill="white">
                        <use xlink:href="#path-9"></use>
                    </mask>
                    <use id="Mask" fill="#868790" fill-rule="evenodd" xlink:href="#path-9"></use>
                    <g id="Medium-Gray" mask="url(#mask-10)" fill-rule="evenodd" fill="#868790">
                        <rect id="Object" x="0" y="0" width="42" height="60"></rect>
                    </g>
                </g>
                <g id="A" transform="translate(247.000000, 20.000000)">
                    <mask id="mask-12" fill="white">
                        <use xlink:href="#path-11"></use>
                    </mask>
                    <use id="Mask" fill="#868790" fill-rule="evenodd" xlink:href="#path-11"></use>
                    <g id="Medium-Gray" mask="url(#mask-12)" fill-rule="evenodd" fill="#868790">
                        <rect id="Object" x="0" y="0" width="52" height="60"></rect>
                    </g>
                </g>
                <g id="I" transform="translate(304.000000, 0.000000)">
                    <mask id="mask-14" fill="white">
                        <use xlink:href="#path-13"></use>
                    </mask>
                    <use id="Mask" fill="#868790" fill-rule="evenodd" xlink:href="#path-13"></use>
                    <g id="Medium-Gray" mask="url(#mask-14)" fill-rule="evenodd" fill="#868790">
                        <rect id="Object" x="0" y="0" width="42" height="80"></rect>
                    </g>
                </g>
                <g id="L" transform="translate(346.000000, 0.000000)">
                    <mask id="mask-16" fill="white">
                        <use xlink:href="#path-15"></use>
                    </mask>
                    <use id="Mask" fill="#868790" fill-rule="evenodd" xlink:href="#path-15"></use>
                    <g id="Medium-Gray" mask="url(#mask-16)" fill-rule="evenodd" fill="#868790">
                        <rect id="Object" x="0" y="0" width="42" height="80"></rect>
                    </g>
                </g>
                <g id="S" transform="translate(396.000000, 20.000000)">
                    <mask id="mask-18" fill="white">
                        <use xlink:href="#path-17"></use>
                    </mask>
                    <use id="Mask" fill="#868790" fill-rule="evenodd" xlink:href="#path-17"></use>
                </g>
                <g id="_" transform="translate(448.000000, 20.000000)">
                    <mask id="mask-20" fill="white">
                        <use xlink:href="#path-19"></use>
                    </mask>
                    <use id="Mask" fill="#89BA40" fill-rule="nonzero" xlink:href="#path-19"></use>
                    <g id="Green" mask="url(#mask-20)" fill-rule="evenodd" fill="#89BA40">
                        <rect id="Object" x="0" y="0" width="52" height="60"></rect>
                    </g>
                </g>
            </g>
        </g>
    </g>
</svg>

<svg xmlns="http://www.w3.org/2000/svg" xmlns:xlink="http://www.w3.org/1999/xlink" shape-rendering="geometricPrecision" viewBox="0 0 500 100"><defs><path id="a" d="M0 9.37V1.59a1 1 0 0 1 1.43-.9l50 24.04a1 1 0 0 1 .57.9v8.74a1 1 0 0 1-.57.9l-50 24.04a1 1 0 0 1-1.43-.9v-7.78a1 1 0 0 1 .57-.9L40.1 30.9a1 1 0 0 0 0-1.8L.57 10.27a1 1 0 0 1-.57-.9z"/><path id="c" d="M11.28 20h21.44c.44 0 .6.05.77.13.16.1.29.22.38.38.08.16.13.33.13.77V30H11.28c-.44 0-.6-.05-.77-.13a.9.9 0 0 1-.38-.38c-.08-.16-.13-.33-.13-.77v-7.44c0-.44.05-.6.13-.77a.9.9 0 0 1 .38-.38c.16-.08.33-.13.77-.13zM1 90h13v10H1a1 1 0 0 1-1-1v-8a1 1 0 0 1 1-1zm13 10V80h20a20 20 0 0 1-20 20zm0-10a10 10 0 0 0 10-10H14v10zm10-60h10v50H24V30zm0-30h9a1 1 0 0 1 1 1v8a1 1 0 0 1-1 1h-9a1 1 0 0 1-1-1V1a1 1 0 0 1 1-1zm0 30v1a1 1 0 0 0-1-1h1z"/><path id="e" d="M26 10c-8.84 0-16 6.16-16 15h32c0-8.84-7.16-15-16-15zm12.57 34.5l6.36 7.34A26 26 0 0 1 0 34v-8a26 26 0 0 1 52 0v9H10c0 8.84 7.16 15 16 15 5.1 0 9.65-2.05 12.58-5.5zM51 35h1v-1a1 1 0 0 1-1 1z"/><path id="g" d="M10 19.99v-.98c0 .51.4.94.9.99H31a1 1 0 0 1 1 1v8a1 1 0 0 1-1 1H0V20h10zM20 80A20 20 0 0 1 0 60h20v20zm0-10V60H10a10 10 0 0 0 10 10zh11a1 1 0 0 1 1 1v8a1 1 0 0 1-1 1H20V70zM0 30h10v30H0V30zM10 0v20H0V5l10-5zm0 30h1a1 1 0 0 0-1 1v-1z"/><path id="i" d="M42 5.5l-6.15 7.89A16 16 0 0 0 10 26H0V1a1 1 0 0 1 1-1h9v5.5A25.9 25.9 0 0 1 26 0a25.9 25.9 0 0 1 16 5.5zM0 26h10v33a1 1 0 0 1-1 1H1a1 1 0 0 1-1-1V26zM10 1V0H9a1 1 0 0 1 1 1z"/><path id="k" d="M5 14V4C8.62.38 21.47 0 27 0v10c-5.95-.23-10.62.1-14 1s-6.05 1.9-8 3zM27 0a20 20 0 0 1 20 20H27V0zm0 10v10h10a10 10 0 0 0-10-10zm20 23.25V40c0 4 1.67 10.67 5 20H42l-1.26-7.53A23.44 23.44 0 0 1 23.5 60H20a20 20 0 1 1 0-40h27v13.25zM37 30H20a10 10 0 0 0 0 20h3.5A13.5 13.5 0 0 0 37 36.5V30z"/><path id="m" d="M31 80a20 20 0 0 1-20-20h20v20zm0-10V60H21a10 10 0 0 0 10 10zh10a1 1 0 0 1 1 1v8a1 1 0 0 1-1 1H31V70zM11 30h10v30H11V30zM1 20h19a1 1 0 0 1 1 1v9H1a1 1 0 0 1-1-1v-8a1 1 0 0 1 1-1zM11.28 0h8.44c.44 0 .6.05.77.13.16.1.29.22.38.38.08.16.13.33.13.77v7.44c0 .44-.05.6-.13.77a.9.9 0 0 1-.38.38c-.16.08-.33.13-.77.13h-8.44c-.44 0-.6-.05-.77-.13a.9.9 0 0 1-.38-.38c-.08-.16-.13-.33-.13-.77V1.28c0-.44.05-.6.13-.77a.9.9 0 0 1 .38-.38c.16-.08.33-.13.77-.13zM11 31a1 1 0 0 0-1-1h1v1z"/><path id="o" d="M31 80a20 20 0 0 1-20-20h20v20zm0-10V60H21a10 10 0 0 0 10 10zh10a1 1 0 0 1 1 1v8a1 1 0 0 1-1 1H31V70zM1 0h19a1 1 0 0 1 1 1v9H1a1 1 0 0 1-1-1V1a1 1 0 0 1 1-1zm10 10h10v50H11V10zm0 1a1 1 0 0 0-1-1h1v1z"/><path id="q" d="M22 35C9.85 35 0 27.17 0 17.5 0 7.84 9.85 0 22 0v35zm0-10V10c-6.63 0-12 3.36-12 7.5S15.37 25 22 25zm0 35C9.85 60 0 52.17 0 42.5h22V60zm0-10v-7.5H10c0 4.14 5.37 7.5 12 7.5zm0 10V25c12.15 0 22 7.83 22 17.5S34.15 60 22 60zm0-10V35c6.63 0 12 3.36 12 7.5S28.63 50 22 50zm0-34.38V0c8.77 0 16.35 4.09 19.88 10L34 17.5H22v-1.88 1.88h12c0-4.14-5.37-7.5-12-7.5v5.63z"/><path id="r" d="M52 51v8a1 1 0 0 1-1 1H1a1 1 0 0 1-1-1v-8a1 1 0 0 1 1-1h50a1 1 0 0 1 1 1z"/></defs><g fill="none" fill-rule="evenodd"><g fill="#89BA40" transform="translate(0 20)"><mask id="b" fill="#fff"><use xlink:href="#a"/></mask><use fill-rule="nonzero" xlink:href="#a"/><g mask="url(#b)"><path d="M0 0h52v60H0z"/></g></g><g fill="#58595B" transform="translate(52)"><mask id="d" fill="#fff"><use xlink:href="#c"/></mask><use xlink:href="#c"/><g mask="url(#d)"><path d="M0 0h34v100H0z"/></g></g><g fill="#58595B" transform="translate(96 20)"><mask id="f" fill="#fff"><use xlink:href="#e"/></mask><use fill-rule="nonzero" xlink:href="#e"/><g mask="url(#f)"><path d="M0 0h52v60H0z"/></g></g><g fill="#58595B" transform="translate(158)"><mask id="h" fill="#fff"><use xlink:href="#g"/></mask><use xlink:href="#g"/><g mask="url(#h)"><path d="M0 0h32v80H0z"/></g></g><g fill="#868790" transform="translate(200 20)"><mask id="j" fill="#fff"><use xlink:href="#i"/></mask><use xlink:href="#i"/><g mask="url(#j)"><path d="M0 0h42v60H0z"/></g></g><g fill="#868790" transform="translate(247 20)"><mask id="l" fill="#fff"><use xlink:href="#k"/></mask><use xlink:href="#k"/><g mask="url(#l)"><path d="M0 0h52v60H0z"/></g></g><g fill="#868790" transform="translate(304)"><mask id="n" fill="#fff"><use xlink:href="#m"/></mask><use xlink:href="#m"/><g mask="url(#n)"><path d="M0 0h42v80H0z"/></g></g><g fill="#868790" transform="translate(346)"><mask id="p" fill="#fff"><use xlink:href="#o"/></mask><use xlink:href="#o"/><g mask="url(#p)"><path d="M0 0h42v80H0z"/></g></g><use fill="#868790" transform="translate(396 20)" xlink:href="#q"/><g fill="#89BA40" transform="translate(448 20)"><mask id="s" fill="#fff"><use xlink:href="#r"/></mask><use fill-rule="nonzero" xlink:href="#r"/><g mask="url(#s)"><path d="M0 0h52v60H0z"/></g></g></g></svg>
